X:1
T:Title
%%score { ( 1 3 4 ) | ( 2 5 ) }
L:1/8
M:4/4
K:Db
V:1 treble nm="Grand Piano"
V:3 treble 
V:4 treble 
V:2 bass 
V:5 bass 
V:1
 z4 z2[Q:1/4=100] FG | [A,FA]2 [Fd]2 [Fc]2 [FB]2 | [CGA]4 z4 | [A,CG]2 [A,CA]2 [Gc]2 [CGB]2 | %4
[M:3/4] F2 z2 z2 |[M:1/4] [CG]2 |[M:4/4] [DF]2 [DF]2 [EG]2 [EF]2 | d4 z4 | z2 z =G A2 B2 | %9
[M:3/4] [A,A]6 |[M:1/4] [EA]2 |[M:4/4] [DA]2 [EA]2 [=DB]2 [DF]2 | [FA]3 G G2 G2 | %13
 G2 [GB]2 [FA]2 [EG]2 |[M:3/4] [DF]3 G A2 |[M:1/4] D2 |[M:4/4] E3 E F2 F2 | %17
 [_CFA]2 [B,EG]2 [A,B,F]2 [G,B,E]2 | [DA]3 [DB] [A,CF]2[K:bass] [G,CE]2 |[M:3/4] [F,D]6 | %20
[M:1/4][K:treble] A2 |[M:4/4] z2 z d [Fc]2 [DFB]2 | z2 z A A2 [CEA]2 | [Dd]2 [DFd]2 [Fc]2 [DFB]2 | %24
[M:3/4] z2 z A A2 |[M:1/4] [EG]2 |[M:4/4] F2 G2 A2 [Fd]2 |[M:9/8] d3 B B2- B B2 | %28
[M:4/4] A2 d2 [Gd]2 [Ge]2 |[M:3/4] [Fd]6 |] %30
V:2
 z4 z2 DE | D,2 [A,,A,]2 [D,A,]2 [A,,A,]2 | [E,A,]2 z C E,2 A,,2 | E,2 A,,2 [E,A,C]2 [A,,A,]2 | %4
[M:3/4] [D,A,]2 [=D,A,]2 [E,A,]2 |[M:1/4] [A,,A,]2 |[M:4/4] [D,A,]2 [D,A,]2 [C,=A,]2 [C,A,]2 | %7
 [B,,B,]2 z[K:treble] c[K:bass] B,,2 B,,2 | [E,B,D]2 [E,B,]2 [E,F,D]2 [E,=G,D]2 | %9
[M:3/4] A,,2 B,,2 C,2 |[M:1/4] [C,G,]2 |[M:4/4] [D,F,]2 [C,F,]2 [B,,F,]2 [B,,B,]2 | %12
 [E,B,]3 [E,B,E] [E,B,E]2 [E,B,D]2 | [E,A,C]2 [A,,A,]2 [B,,A,]2 [C,A,]2 | %14
[M:3/4] z2 z[K:treble] E F2 |[M:1/4][K:bass] [F,A,]2 | %16
[M:4/4] [G,B,D]3 [G,B,D] [F,=A,C]2 [=D,_A,_C]2 | =D,2 E,2 G,,2 G,,2 | [A,,F,]3 [A,,F,] A,,2 A,,2 | %19
[M:3/4] D,2 A,,2 D,,2 |[M:1/4] A,2 |[M:4/4] [D,A,]2 z [DF] [D,A,D]2 [A,,A,]2 | %22
 [E,A,]2 z[K:treble] [CG] [A,CF]2[K:bass] [A,,G,]2 | [D,F,]2 [A,,A,]2 [D,A,D]2 [A,,A,]2 | %24
[M:3/4] [E,A,]2 z[K:treble] [CG] [A,CF]2 |[M:1/4][K:bass] [A,,A,]2 | %26
[M:4/4] [D,A,D]2 [E,A,D]2 [F,A,D]2 [D,_C]2 | %27
[M:9/8][K:treble] [G,B,G]3 [G,DG] [G,DG]2- [G,DG] [=G,D_F]2 | %28
[M:4/4] [A,DF]2 [A,DF]2[K:bass] [E,B,]2 [A,C]2 |[M:3/4] [D,A,D]6 |] %30
V:3
 x8 | x8 | z2 z E [A,CE]2 [A,CF]2 | x8 |[M:3/4] A2- [_CFA-]2 [=CGA]2 |[M:1/4] x2 |[M:4/4] x8 | %7
 [DF]2 [DF]2 [B,DFB]2 [B,DF]2 | =G4 z4 |[M:3/4] C2 D2 E2 |[M:1/4] x2 |[M:4/4] x8 | x8 | x8 | %14
[M:3/4] x6 |[M:1/4] x2 |[M:4/4] x8 | x8 | x6[K:bass] x2 |[M:3/4] x6 |[M:1/4][K:treble] x2 | %21
[M:4/4] [DFd]4 z4 | [CGB]4 z4 | x8 |[M:3/4] [CGB]4 z2 |[M:1/4] x2 |[M:4/4] x8 |[M:9/8] x9 | %28
[M:4/4] x8 |[M:3/4] x6 |] %30
V:4
 x8 | x8 | z2 A,2 z4 | x8 |[M:3/4] x6 |[M:1/4] x2 |[M:4/4] x8 | x8 | z2 D2 z4 |[M:3/4] x6 | %10
[M:1/4] x2 |[M:4/4] x8 | x8 | x8 |[M:3/4] x6 |[M:1/4] x2 |[M:4/4] x8 | x8 | x6[K:bass] x2 | %19
[M:3/4] x6 |[M:1/4][K:treble] x2 |[M:4/4] z2 A,2 z4 | z2 A,2 z4 | x8 |[M:3/4] z2 A,2 z2 | %25
[M:1/4] x2 |[M:4/4] x8 |[M:9/8] x9 |[M:4/4] x8 |[M:3/4] x6 |] %30
V:5
 x8 | x8 | z2 A,,2 z4 | x8 |[M:3/4] x6 |[M:1/4] x2 |[M:4/4] x8 | z2 [B,,B,]2[K:treble][K:bass] z4 | %8
 x8 |[M:3/4] x6 |[M:1/4] x2 |[M:4/4] x8 | x8 | x8 |[M:3/4] [D,A,]6[K:treble] |[M:1/4][K:bass] x2 | %16
[M:4/4] x8 | x8 | x8 |[M:3/4] x6 |[M:1/4] x2 |[M:4/4] z2 A,,2 z4 | z2 A,,2[K:treble] z4[K:bass] | %23
 x8 |[M:3/4] z2 A,,2[K:treble] z2 |[M:1/4][K:bass] x2 |[M:4/4] x8 |[M:9/8][K:treble] x9 | %28
[M:4/4] x4[K:bass] x4 |[M:3/4] x6 |] %30

